X: 33831
T: Reavy's
R: reel
M: 4/4
K: Fmajor
F>E|:D>A,D>E F>EF>G|A>G (3A=Bc d>ef>g|
f>g|:a>fd>c (3A=Bc f>g|a>fd>c d2 f>g|
F>AD>E F>EF>G|A>G (3ABc d>ef>g|a>fg>e f>ed>c|A2d2d2:|

